assets/images/icon-certification.svg

<?xml version="1.0" encoding="UTF-8"?>
<svg width="48px" height="68px" viewBox="0 0 48 68" version="1.1" xmlns="http://www.w3.org/2000/svg" xmlns:xlink="http://www.w3.org/1999/xlink">
    <!-- Generator: Sketch 59.1 (86144) - https://sketch.com -->
    <title>noun_Certificate_2568461</title>
    <desc>Created with Sketch.</desc>
    <g id="Webpages" stroke="none" stroke-width="1" fill="none" fill-rule="evenodd">
        <g id="Home" transform="translate(-1204.000000, -964.000000)" fill="#0a1f44" fill-rule="nonzero">
            <g id="Section" transform="translate(370.000000, 943.000000)">
                <g id="Group" transform="translate(800.000000, 0.000000)">
                    <g id="noun_Certificate_2568461" transform="translate(34.000000, 21.000000)">
                        <path d="M48,58.6759028 L48,12.3123106 C48,12.2905525 47.9892065,12.2723789 47.9879113,12.2509981 C47.9824221,12.1541557 47.9639189,12.0608977 47.932217,11.9694635 C47.9219169,11.9399706 47.9147007,11.9107921 47.9018719,11.8826197 C47.8526536,11.7732004 47.7906066,11.6691893 47.7039505,11.5808363 L36.6415641,0.301846252 C36.5549079,0.213493318 36.4528942,0.15023133 36.3455762,0.100049438 C36.3179449,0.0869694445 36.2893268,0.0796119545 36.2604003,0.0691101888 C36.1707219,0.0367874498 36.0792549,0.0179221042 35.9842723,0.0123254004 C35.9633021,0.0110048623 35.9454775,0 35.9241372,0 L1.01051593,0 C0.452462447,0 0,0.460818664 0,1.03030205 L0,58.6759029 C0,59.2453863 0.452462447,59.706205 1.01051593,59.706205 L28.3466864,59.706205 L27.7521817,66.8831039 C27.715669,67.3177626 27.9525086,67.7292798 28.3432941,67.9083752 C28.7330927,68.0884768 29.1939432,67.997923 29.489006,67.6819904 L33.5892928,63.3092437 L37.6885927,67.6819904 C37.8829986,67.8892583 38.1484564,68 38.4188483,68 C38.5589785,68 38.7010823,67.9697506 38.8343046,67.9093814 C39.2250901,67.7292798 39.4619297,67.3177626 39.4254169,66.8831039 L38.8309123,59.706205 L46.9894838,59.706205 C47.5480309,59.7062049 48,59.2453862 48,58.6759028 Z M36.9376137,3.51751549 L44.5500354,11.2789901 L36.9376137,11.2789901 L36.9376137,3.51751549 Z M33.5892929,54.5617378 C28.9768403,54.5617378 25.2239184,50.7403635 25.2239184,46.0436351 C25.2239184,41.3469067 28.9768403,37.5265385 33.5892929,37.5265385 C38.1958245,37.5265385 41.9438122,41.3469066 41.9438122,46.0436351 C41.9438122,50.7403637 38.1958244,54.5617378 33.5892929,54.5617378 Z M34.3195485,61.1057656 C34.1290899,60.9025225 33.8656057,60.7878208 33.5892929,60.7878208 C33.31298,60.7878208 33.0494958,60.9025224 32.8590373,61.1057656 L30.007093,64.1483764 L30.6657416,56.1883121 C31.5942271,56.4664509 32.5736578,56.6223419 33.5892929,56.6223419 C34.6046196,56.6223419 35.5837419,56.4663251 36.5118574,56.187809 L37.1705061,64.1473703 L34.3195485,61.1057656 Z M38.6601906,57.6456008 L38.4718907,55.3725095 C41.7371943,53.588535 43.9648441,50.0772449 43.9648441,46.043635 C43.9648441,40.2109583 39.3099577,35.4659343 33.5892929,35.4659343 C27.862707,35.4659343 23.20338,40.2109583 23.20338,46.043635 C23.20338,50.0787542 25.4349154,53.5909874 28.7055233,55.3743331 L28.5174085,57.6456008 L2.02103195,57.6456008 L2.02103195,2.060604 L34.9165819,2.060604 L34.9165819,12.3092921 C34.9165819,12.8787755 35.3685509,13.3395942 35.9270978,13.3395942 L45.9789681,13.3395942 L45.9789681,57.6456008 L38.6601906,57.6456008 Z" id="Shape"></path>
                        <path d="M37.3258308,42.3089996 L32.5427641,47.4538432 L30.6741692,45.4432857 C30.2910641,45.0312862 29.6704339,45.0312862 29.2873288,45.4432857 C28.9042237,45.8552852 28.9042237,46.5227244 29.2873288,46.9347238 L31.849344,49.6910003 C32.0332344,49.8887601 32.2822526,50 32.5427641,50 C32.8032755,50 33.0522938,49.8887601 33.2361842,49.6910003 L38.7126712,43.8004377 C39.0957763,43.3884383 39.0957763,42.7209991 38.7126712,42.3089996 C38.3295661,41.8970001 37.7089359,41.8970001 37.3258308,42.3089996 Z" id="Path"></path>
                        <path d="M7.04166667,9 L29.9583333,9 C30.5340983,9 31,8.5527344 31,8 C31,7.4472656 30.5340983,7 29.9583333,7 L7.04166667,7 C6.46641031,7 6,7.4472656 6,8 C6,8.5527344 6.46641031,9 7.04166667,9 Z" id="Path"></path>
                        <path d="M7.04166667,17 L29.9583333,17 C30.5340983,17 31,16.5527344 31,16 C31,15.4472656 30.5340983,15 29.9583333,15 L7.04166667,15 C6.46641031,15 6,15.4472656 6,16 C6,16.5527344 6.46641031,17 7.04166667,17 Z" id="Path"></path>
                        <path d="M41.9729744,24 L7.02702556,24 C6.4598547,24 6,24.4472656 6,25 C6,25.5527344 6.4598547,26 7.02702556,26 L41.9729744,26 C42.5406468,26 43,25.5527344 43,25 C43,24.4472656 42.5406468,24 41.9729744,24 Z" id="Path"></path>
                        <path d="M18,33 L7,33 C6.4477539,33 6,33.4472656 6,34 C6,34.5527344 6.4477539,35 7,35 L18,35 C18.5522461,35 19,34.5527344 19,34 C19,33.4472656 18.5522461,33 18,33 Z" id="Path"></path>
                        <path d="M18,42 L7,42 C6.4477539,42 6,42.4472656 6,43 C6,43.5527344 6.4477539,44 7,44 L18,44 C18.5522461,44 19,43.5527344 19,43 C19,42.4472656 18.5522461,42 18,42 Z" id="Path"></path>
                        <path d="M18,51 L7,51 C6.4477539,51 6,51.4472656 6,52 C6,52.5527344 6.4477539,53 7,53 L18,53 C18.5522461,53 19,52.5527344 19,52 C19,51.4472656 18.5522461,51 18,51 Z" id="Path"></path>
                    </g>
                </g>
            </g>
        </g>
    </g>
</svg>

<svg width="48" height="68" viewBox="0 0 48 68" xmlns="http://www.w3.org/2000/svg"><title>noun_Certificate_2568461</title><g fill="#0a1f44"><path d="M48 58.676V12.312c0-.021-.01-.04-.012-.061a1.03 1.03 0 0 0-.056-.282c-.01-.029-.017-.058-.03-.086a1.021 1.021 0 0 0-.198-.302L36.642.3a.999.999 0 0 0-.296-.2c-.028-.013-.057-.02-.086-.03a.977.977 0 0 0-.276-.058c-.02-.001-.039-.012-.06-.012H1.011A1.02 1.02 0 0 0 0 1.03v57.646c0 .57.452 1.03 1.01 1.03h27.337l-.595 7.177c-.036.435.2.846.591 1.025.39.18.85.09 1.146-.226l4.1-4.373 4.1 4.373a1 1 0 0 0 1.145.227c.391-.18.628-.591.591-1.026l-.594-7.177h8.158A1.02 1.02 0 0 0 48 58.676zM36.938 3.518l7.612 7.761h-7.612V3.518zm-3.349 51.044c-4.612 0-8.365-3.822-8.365-8.518 0-4.697 3.753-8.517 8.365-8.517 4.607 0 8.355 3.82 8.355 8.517 0 4.696-3.748 8.518-8.355 8.518zm.73 6.544a1 1 0 0 0-1.46 0l-2.852 3.042.659-7.96c.928.278 1.908.434 2.923.434 1.016 0 1.995-.156 2.923-.434l.659 7.96-2.851-3.042zm4.341-3.46l-.188-2.273a10.616 10.616 0 0 0 5.493-9.33c0-5.832-4.655-10.577-10.376-10.577-5.726 0-10.386 4.745-10.386 10.578 0 4.035 2.232 7.547 5.503 9.33l-.189 2.272H2.021V2.06h32.896v10.248c0 .57.452 1.03 1.01 1.03H45.98v44.307h-7.32z"/><path d="M37.326 42.309l-4.783 5.145-1.869-2.01a.933.933 0 0 0-1.387 0 1.111 1.111 0 0 0 0 1.49l2.562 2.757a.947.947 0 0 0 .694.309c.26 0 .51-.111.693-.309l5.477-5.89a1.111 1.111 0 0 0 0-1.492.933.933 0 0 0-1.387 0zM7.042 9h22.916C30.534 9 31 8.553 31 8c0-.553-.466-1-1.042-1H7.042C6.466 7 6 7.447 6 8c0 .553.466 1 1.042 1zm0 8h22.916c.576 0 1.042-.447 1.042-1 0-.553-.466-1-1.042-1H7.042C6.466 15 6 15.447 6 16c0 .553.466 1 1.042 1zm34.931 7H7.027C6.46 24 6 24.447 6 25c0 .553.46 1 1.027 1h34.946c.568 0 1.027-.447 1.027-1 0-.553-.46-1-1.027-1zM18 33H7a1 1 0 1 0 0 2h11a1 1 0 1 0 0-2zm0 9H7a1 1 0 1 0 0 2h11a1 1 0 1 0 0-2zm0 9H7a1 1 0 1 0 0 2h11a1 1 0 1 0 0-2z"/></g></svg>
